static/images/past-sponsors/crabnebula.svg

<svg fill="none" height="60" viewBox="0 0 301 60" width="301" xmlns="http://www.w3.org/2000/svg"><g fill="#000"><path d="m84.8533 44.2579c-1.952 0-3.7887-.3755-5.5095-1.1266-1.721-.751-3.2237-1.7742-4.508-3.0693-1.2586-1.2948-2.2604-2.7972-3.005-4.5065-.745-1.7352-1.1174-3.587-1.1174-5.5553 0-1.9686.3724-3.8074 1.1174-5.5168.7446-1.7353 1.7464-3.2505 3.005-4.5455 1.2843-1.295 2.787-2.318 4.508-3.0691 1.7208-.7511 3.5575-1.1267 5.5095-1.1267 1.4127 0 2.7613.1813 4.0456.5439 1.3099.3626 2.5044.8806 3.5831 1.554 1.1046.6475 2.0935 1.4375 2.9669 2.3699.8733.9065 1.6052 1.9295 2.1961 3.0691l-5.3939 2.9526c-.7706-1.3986-1.7724-2.4993-3.0054-3.3022-1.2073-.803-2.6713-1.2044-4.3924-1.2044-1.1302 0-2.1832.2202-3.1593.6605-.9503.4403-1.7852 1.0489-2.5042 1.8259-.7193.7511-1.2846 1.6317-1.6955 2.6418-.4109.9842-.6165 2.033-.6165 3.147 0 1.1136.2056 2.1753.6165 3.1856.4109.9841.9762 1.8647 1.6955 2.6418.719.7511 1.5539 1.3468 2.5042 1.7869.9761.4404 2.0291.6606 3.1593.6606 1.7211 0 3.1851-.4016 4.3924-1.2043 1.233-.803 2.2348-1.9038 3.0054-3.3022l5.3939 2.9525c-.5909 1.1395-1.3228 2.1756-2.1961 3.1081-.8734.9063-1.8623 1.6964-2.9669 2.3697-1.0787.6474-2.2732 1.1526-3.5831 1.5152-1.2843.3626-2.6329.5438-4.0456.5438z"/><path d="m100.813 25.4728h5.999v2.8178c.318-.8266.901-1.5404 1.748-2.1415.874-.6012 1.868-.9017 2.98-.9017.291 0 .596.0125.914.0375.318.0251.662.0877 1.033.1879v5.7482c-.45-.1502-.887-.2629-1.311-.3381-.424-.075-.874-.1128-1.351-.1128-1.298 0-2.291.4259-2.98 1.2775-.688.8515-1.033 1.9537-1.033 3.3061v8.9042h-5.999z"/><path d="m121.985 44.2579c-1.197 0-2.32-.2549-3.37-.7649-1.026-.5097-1.917-1.1895-2.674-2.0394-.757-.8741-1.355-1.8815-1.795-3.0226-.439-1.1656-.659-2.3917-.659-3.6784s.22-2.5008.659-3.6419c.44-1.1653 1.038-2.1729 1.795-3.0227.757-.874 1.648-1.566 2.674-2.0758 1.05-.5099 2.173-.7648 3.37-.7648.61 0 1.172.0728 1.685.2185.537.1214 1.013.2913 1.428.5098.44.2186.806.4613 1.099.7284.318.2671.574.522.769.7648v-1.8209h5.531v18.2092h-5.531v-1.8209c-.195.2427-.451.4978-.769.7648-.293.267-.659.5098-1.099.7283-.415.2185-.891.3886-1.428.51-.513.1456-1.075.2185-1.685.2185zm1.245-4.9894c1.245 0 2.247-.4249 3.004-1.2746.781-.8499 1.172-1.9302 1.172-3.2413 0-1.311-.391-2.3915-1.172-3.2412-.757-.8499-1.759-1.2748-3.004-1.2748s-2.259.4249-3.04 1.2748c-.757.8497-1.136 1.9302-1.136 3.2412 0 1.3111.379 2.3914 1.136 3.2413.781.8497 1.795 1.2746 3.04 1.2746z"/><path d="m147.331 44.2579c-.611 0-1.184-.075-1.722-.2248-.513-.1249-.989-.2999-1.428-.5248-.415-.2248-.782-.4746-1.099-.7493-.318-.2747-.562-.5372-.733-.787v1.8736h-5.531v-28.1035h5.531v11.2414c.171-.2498.415-.5121.733-.7868.317-.2748.684-.5246 1.099-.7495.439-.2248.915-.3997 1.428-.5246.538-.1499 1.111-.2248 1.722-.2248 1.197 0 2.308.2623 3.333.7869 1.05.5246 1.954 1.2366 2.711 2.1359.757.8743 1.355 1.911 1.795 3.1101.439 1.174.659 2.4232.659 3.7471s-.22 2.5855-.659 3.7848c-.44 1.174-1.038 2.2105-1.795 3.1099-.757.8745-1.661 1.574-2.711 2.0984-1.025.5248-2.136.787-3.333.787zm-1.246-5.1336c1.246 0 2.247-.4372 3.004-1.3114.782-.8745 1.172-1.986 1.172-3.3351 0-1.3489-.39-2.4606-1.172-3.3348-.757-.8745-1.758-1.3117-3.004-1.3117-1.245 0-2.258.4372-3.04 1.3117-.757.8742-1.135 1.9859-1.135 3.3348 0 1.3491.378 2.4606 1.135 3.3351.782.8742 1.795 1.3114 3.04 1.3114z"/><path d="m177.689 44.2579-12.807-16.652v16.652h-5.885v-26.9315h5.071l12.77 16.6519v-16.6519h5.922v26.9315z"/><path d="m195.806 44.2579c-1.362 0-2.649-.2185-3.862-.6556-1.188-.437-2.228-1.0682-3.119-1.8938-.891-.8255-1.596-1.821-2.116-2.9863-.52-1.1896-.78-2.5128-.78-3.9696 0-1.3597.235-2.61.706-3.7511.495-1.1654 1.176-2.173 2.042-3.0227.891-.8498 1.93-1.5175 3.119-2.0031 1.188-.4855 2.488-.7283 3.898-.7283 1.213 0 2.377.1942 3.491.5827 1.138.3642 2.128.9226 2.97 1.6752.842.7284 1.51 1.651 2.005 2.7679.52 1.0924.78 2.3793.78 3.8604 0 .2427-.013.5218-.037.8375 0 .2915-.025.6556-.075 1.0926h-13.478c.173 1.0925.706 1.9058 1.597 2.44.891.51 1.869.7648 2.933.7648 1.089 0 2.017-.2064 2.785-.6192.792-.4368 1.361-.9226 1.708-1.4566l4.158 3.0592c-.866 1.2138-2.054 2.1851-3.564 2.9134-1.485.7285-3.206 1.0926-5.161 1.0926zm3.564-11.7997c-.247-.9712-.742-1.6632-1.485-2.0758-.743-.437-1.522-.6555-2.339-.6555-.421 0-.842.0484-1.262.1456-.421.0971-.817.2548-1.189.4734-.371.2185-.705.4978-1.002.8377-.273.34-.47.7649-.594 1.2746z"/><path d="m220.204 44.2579c-.61 0-1.184-.075-1.721-.2248-.513-.1249-.989-.2999-1.429-.5248-.415-.2248-.781-.4746-1.099-.7493-.317-.2747-.561-.5372-.732-.787v1.8736h-5.531v-28.1035h5.531v11.2414c.171-.2498.415-.5121.732-.7868.318-.2748.684-.5246 1.099-.7495.44-.2248.916-.3997 1.429-.5246.537-.1499 1.111-.2248 1.721-.2248 1.197 0 2.308.2623 3.334.7869 1.05.5246 1.953 1.2366 2.71 2.1359.757.8743 1.356 1.911 1.795 3.1101.44 1.174.659 2.4232.659 3.7471s-.219 2.5855-.659 3.7848c-.439 1.174-1.038 2.2105-1.795 3.1099-.757.8745-1.66 1.574-2.71 2.0984-1.026.5248-2.137.787-3.334.787zm-1.245-5.1336c1.245 0 2.247-.4372 3.004-1.3114.781-.8745 1.172-1.986 1.172-3.3351 0-1.3489-.391-2.4606-1.172-3.3348-.757-.8745-1.759-1.3117-3.004-1.3117s-2.259.4372-3.04 1.3117c-.757.8742-1.136 1.9859-1.136 3.3348 0 1.3491.379 2.4606 1.136 3.3351.781.8742 1.795 1.3114 3.04 1.3114z"/><path d="m239.467 44.2579c-2.492 0-4.381-.7689-5.667-2.3066-1.286-1.5376-1.929-3.5715-1.929-6.1013v-10.6026h6.069v9.6354c0 1.3642.228 2.4182.683 3.1622.482.7442 1.286 1.1161 2.412 1.1161 1.152 0 2.063-.3843 2.733-1.1533.696-.7689 1.045-2.0088 1.045-3.7202v-9.0402h6.069v18.6012h-6.069v-1.8973c-.483.6447-1.166 1.1904-2.05 1.6369s-1.983.6697-3.296.6697z"/><path d="m255.634 15.7421h6.337v28.5158h-6.337z"/><path d="m273.637 44.2579c-1.197 0-2.32-.2549-3.371-.7649-1.023-.5097-1.915-1.1895-2.673-2.0394-.755-.8741-1.355-1.8815-1.793-3.0226-.442-1.1656-.661-2.3917-.661-3.6784s.219-2.5008.661-3.6419c.438-1.1653 1.038-2.1729 1.793-3.0227.758-.874 1.65-1.566 2.673-2.0758 1.051-.5099 2.174-.7648 3.371-.7648.611 0 1.172.0728 1.686.2185.536.1214 1.014.2913 1.428.5098.439.2186.807.4613 1.099.7284.317.2671.573.522.768.7648v-1.8209h5.532v18.2092h-5.532v-1.8209c-.195.2427-.451.4978-.768.7648-.292.267-.66.5098-1.099.7283-.414.2185-.892.3886-1.428.51-.514.1456-1.075.2185-1.686.2185zm1.245-4.9894c1.245 0 2.247-.4249 3.005-1.2746.78-.8499 1.172-1.9302 1.172-3.2413 0-1.311-.392-2.3915-1.172-3.2412-.758-.8499-1.76-1.2748-3.005-1.2748s-2.259.4249-3.039 1.2748c-.758.8497-1.135 1.9302-1.135 3.2412 0 1.3111.377 2.3914 1.135 3.2413.78.8497 1.794 1.2746 3.039 1.2746z"/><path clip-rule="evenodd" d="m33.6252 17.4034c-6.6305 8.9819-6.5921 20.4574.0857 25.6313 1.755 1.3598 3.7939 2.149 5.9665 2.4105-6.1633 5.1431-13.263 6.7391-18.0568 3.3893-6.5744-4.594-6.3223-16.7508.563-27.1527 5.7494-8.686 14.306-13.40186 20.8005-12.04662-3.4304 1.55882-6.7233 4.19772-9.3589 7.76822zm8.7124 11.4711c-3.0969 3.0066-6.6361 5.0053-9.6241 5.6703 1.7643 6.4795 8.5466 6.9774 8.5466 6.9774s4.0363-.9534 7.0841-7.9894c2.5098-5.7938 2.2909-11.7806-.2387-14.8273-.2104 2.9447-2.2756 6.7782-5.7679 10.169z" fill-rule="evenodd"/></g></svg>

<svg width="301" height="60" viewBox="0 0 301 60" fill="none" xmlns="http://www.w3.org/2000/svg">
<path d="M84.8533 44.2579C82.9013 44.2579 81.0646 43.8824 79.3438 43.1313C77.6228 42.3803 76.1201 41.3571 74.8358 40.062C73.5772 38.7672 72.5754 37.2648 71.8308 35.5555C71.0858 33.8203 70.7134 31.9685 70.7134 30.0002C70.7134 28.0316 71.0858 26.1928 71.8308 24.4834C72.5754 22.7481 73.5772 21.2329 74.8358 19.9379C76.1201 18.6429 77.6228 17.6199 79.3438 16.8688C81.0646 16.1177 82.9013 15.7421 84.8533 15.7421C86.266 15.7421 87.6146 15.9234 88.8989 16.286C90.2088 16.6486 91.4033 17.1666 92.482 17.84C93.5866 18.4875 94.5755 19.2775 95.4489 20.2099C96.3222 21.1164 97.0541 22.1394 97.645 23.279L92.2511 26.2316C91.4805 24.833 90.4787 23.7323 89.2457 22.9294C88.0384 22.1264 86.5744 21.725 84.8533 21.725C83.7231 21.725 82.6701 21.9452 81.694 22.3855C80.7437 22.8258 79.9088 23.4344 79.1898 24.2114C78.4705 24.9625 77.9052 25.8431 77.4943 26.8532C77.0834 27.8374 76.8778 28.8862 76.8778 30.0002C76.8778 31.1138 77.0834 32.1755 77.4943 33.1858C77.9052 34.1699 78.4705 35.0505 79.1898 35.8276C79.9088 36.5787 80.7437 37.1744 81.694 37.6145C82.6701 38.0549 83.7231 38.2751 84.8533 38.2751C86.5744 38.2751 88.0384 37.8735 89.2457 37.0708C90.4787 36.2678 91.4805 35.167 92.2511 33.7686L97.645 36.7211C97.0541 37.8606 96.3222 38.8967 95.4489 39.8292C94.5755 40.7355 93.5866 41.5256 92.482 42.1989C91.4033 42.8463 90.2088 43.3515 88.8989 43.7141C87.6146 44.0767 86.266 44.2579 84.8533 44.2579Z" fill="black"/>
<path d="M100.813 25.4728H106.812V28.2906C107.13 27.464 107.713 26.7502 108.56 26.1491C109.434 25.5479 110.428 25.2474 111.54 25.2474C111.831 25.2474 112.136 25.2599 112.454 25.2849C112.772 25.31 113.116 25.3726 113.487 25.4728V31.221C113.037 31.0708 112.6 30.9581 112.176 30.8829C111.752 30.8079 111.302 30.7701 110.825 30.7701C109.527 30.7701 108.534 31.196 107.845 32.0476C107.157 32.8991 106.812 34.0013 106.812 35.3537V44.2579H100.813V25.4728Z" fill="black"/>
<path d="M121.985 44.2579C120.788 44.2579 119.665 44.003 118.615 43.493C117.589 42.9833 116.698 42.3035 115.941 41.4536C115.184 40.5795 114.586 39.5721 114.146 38.431C113.707 37.2654 113.487 36.0393 113.487 34.7526C113.487 33.4659 113.707 32.2518 114.146 31.1107C114.586 29.9454 115.184 28.9378 115.941 28.088C116.698 27.214 117.589 26.522 118.615 26.0122C119.665 25.5023 120.788 25.2474 121.985 25.2474C122.595 25.2474 123.157 25.3202 123.67 25.4659C124.207 25.5873 124.683 25.7572 125.098 25.9757C125.538 26.1943 125.904 26.437 126.197 26.7041C126.515 26.9712 126.771 27.2261 126.966 27.4689V25.648H132.497V43.8572H126.966V42.0363C126.771 42.279 126.515 42.5341 126.197 42.8011C125.904 43.0681 125.538 43.3109 125.098 43.5294C124.683 43.7479 124.207 43.918 123.67 44.0394C123.157 44.185 122.595 44.2579 121.985 44.2579ZM123.23 39.2685C124.475 39.2685 125.477 38.8436 126.234 37.9939C127.015 37.144 127.406 36.0637 127.406 34.7526C127.406 33.4416 127.015 32.3611 126.234 31.5114C125.477 30.6615 124.475 30.2366 123.23 30.2366C121.985 30.2366 120.971 30.6615 120.19 31.5114C119.433 32.3611 119.054 33.4416 119.054 34.7526C119.054 36.0637 119.433 37.144 120.19 37.9939C120.971 38.8436 121.985 39.2685 123.23 39.2685Z" fill="black"/>
<path d="M147.331 44.2579C146.72 44.2579 146.147 44.1829 145.609 44.0331C145.096 43.9082 144.62 43.7332 144.181 43.5083C143.766 43.2835 143.399 43.0337 143.082 42.759C142.764 42.4843 142.52 42.2218 142.349 41.972V43.8456H136.818V15.7421H142.349V26.9835C142.52 26.7337 142.764 26.4714 143.082 26.1967C143.399 25.9219 143.766 25.6721 144.181 25.4472C144.62 25.2224 145.096 25.0475 145.609 24.9226C146.147 24.7727 146.72 24.6978 147.331 24.6978C148.528 24.6978 149.639 24.9601 150.664 25.4847C151.714 26.0093 152.618 26.7213 153.375 27.6206C154.132 28.4949 154.73 29.5316 155.17 30.7307C155.609 31.9047 155.829 33.1539 155.829 34.4778C155.829 35.8017 155.609 37.0633 155.17 38.2626C154.73 39.4366 154.132 40.4731 153.375 41.3725C152.618 42.247 151.714 42.9465 150.664 43.4709C149.639 43.9957 148.528 44.2579 147.331 44.2579ZM146.085 39.1243C147.331 39.1243 148.332 38.6871 149.089 37.8129C149.871 36.9384 150.261 35.8269 150.261 34.4778C150.261 33.1289 149.871 32.0172 149.089 31.143C148.332 30.2685 147.331 29.8313 146.085 29.8313C144.84 29.8313 143.827 30.2685 143.045 31.143C142.288 32.0172 141.91 33.1289 141.91 34.4778C141.91 35.8269 142.288 36.9384 143.045 37.8129C143.827 38.6871 144.84 39.1243 146.085 39.1243Z" fill="black"/>
<path d="M177.689 44.2579L164.882 27.6059V44.2579H158.997V17.3264H164.068L176.838 33.9783V17.3264H182.76V44.2579H177.689Z" fill="black"/>
<path d="M195.806 44.2579C194.444 44.2579 193.157 44.0394 191.944 43.6023C190.756 43.1653 189.716 42.5341 188.825 41.7085C187.934 40.883 187.229 39.8875 186.709 38.7222C186.189 37.5326 185.929 36.2094 185.929 34.7526C185.929 33.3929 186.164 32.1426 186.635 31.0015C187.13 29.8361 187.811 28.8285 188.677 27.9788C189.568 27.129 190.607 26.4613 191.796 25.9757C192.984 25.4902 194.284 25.2474 195.694 25.2474C196.907 25.2474 198.071 25.4416 199.185 25.8301C200.323 26.1943 201.313 26.7527 202.155 27.5053C202.997 28.2337 203.665 29.1563 204.16 30.2732C204.68 31.3656 204.94 32.6525 204.94 34.1336C204.94 34.3763 204.927 34.6554 204.903 34.9711C204.903 35.2626 204.878 35.6267 204.828 36.0637H191.35C191.523 37.1562 192.056 37.9695 192.947 38.5037C193.838 39.0137 194.816 39.2685 195.88 39.2685C196.969 39.2685 197.897 39.0621 198.665 38.6493C199.457 38.2125 200.026 37.7267 200.373 37.1927L204.531 40.2519C203.665 41.4657 202.477 42.437 200.967 43.1653C199.482 43.8938 197.761 44.2579 195.806 44.2579ZM199.37 32.4582C199.123 31.487 198.628 30.795 197.885 30.3824C197.142 29.9454 196.363 29.7269 195.546 29.7269C195.125 29.7269 194.704 29.7753 194.284 29.8725C193.863 29.9696 193.467 30.1273 193.095 30.3459C192.724 30.5644 192.39 30.8437 192.093 31.1836C191.82 31.5236 191.623 31.9485 191.499 32.4582H199.37Z" fill="black"/>
<path d="M220.204 44.2579C219.594 44.2579 219.02 44.1829 218.483 44.0331C217.97 43.9082 217.494 43.7332 217.054 43.5083C216.639 43.2835 216.273 43.0337 215.955 42.759C215.638 42.4843 215.394 42.2218 215.223 41.972V43.8456H209.692V15.7421H215.223V26.9835C215.394 26.7337 215.638 26.4714 215.955 26.1967C216.273 25.9219 216.639 25.6721 217.054 25.4472C217.494 25.2224 217.97 25.0475 218.483 24.9226C219.02 24.7727 219.594 24.6978 220.204 24.6978C221.401 24.6978 222.512 24.9601 223.538 25.4847C224.588 26.0093 225.491 26.7213 226.248 27.6206C227.005 28.4949 227.604 29.5316 228.043 30.7307C228.483 31.9047 228.702 33.1539 228.702 34.4778C228.702 35.8017 228.483 37.0633 228.043 38.2626C227.604 39.4366 227.005 40.4731 226.248 41.3725C225.491 42.247 224.588 42.9465 223.538 43.4709C222.512 43.9957 221.401 44.2579 220.204 44.2579ZM218.959 39.1243C220.204 39.1243 221.206 38.6871 221.963 37.8129C222.744 36.9384 223.135 35.8269 223.135 34.4778C223.135 33.1289 222.744 32.0172 221.963 31.143C221.206 30.2685 220.204 29.8313 218.959 29.8313C217.714 29.8313 216.7 30.2685 215.919 31.143C215.162 32.0172 214.783 33.1289 214.783 34.4778C214.783 35.8269 215.162 36.9384 215.919 37.8129C216.7 38.6871 217.714 39.1243 218.959 39.1243Z" fill="black"/>
<path d="M239.467 44.2579C236.975 44.2579 235.086 43.489 233.8 41.9513C232.514 40.4137 231.871 38.3798 231.871 35.85V25.2474H237.94V34.8828C237.94 36.247 238.168 37.301 238.623 38.045C239.105 38.7892 239.909 39.1611 241.035 39.1611C242.187 39.1611 243.098 38.7768 243.768 38.0078C244.464 37.2389 244.813 35.999 244.813 34.2876V25.2474H250.882V43.8486H244.813V41.9513C244.33 42.596 243.647 43.1417 242.763 43.5882C241.879 44.0347 240.78 44.2579 239.467 44.2579Z" fill="black"/>
<path d="M255.634 15.7421H261.971V44.2579H255.634V15.7421Z" fill="black"/>
<path d="M273.637 44.2579C272.44 44.2579 271.317 44.003 270.266 43.493C269.243 42.9833 268.351 42.3035 267.593 41.4536C266.838 40.5795 266.238 39.5721 265.8 38.431C265.358 37.2654 265.139 36.0393 265.139 34.7526C265.139 33.4659 265.358 32.2518 265.8 31.1107C266.238 29.9454 266.838 28.9378 267.593 28.088C268.351 27.214 269.243 26.522 270.266 26.0122C271.317 25.5023 272.44 25.2474 273.637 25.2474C274.248 25.2474 274.809 25.3202 275.323 25.4659C275.859 25.5873 276.337 25.7572 276.751 25.9757C277.19 26.1943 277.558 26.437 277.85 26.7041C278.167 26.9712 278.423 27.2261 278.618 27.4689V25.648H284.15V43.8572H278.618V42.0363C278.423 42.279 278.167 42.5341 277.85 42.8011C277.558 43.0681 277.19 43.3109 276.751 43.5294C276.337 43.7479 275.859 43.918 275.323 44.0394C274.809 44.185 274.248 44.2579 273.637 44.2579ZM274.882 39.2685C276.127 39.2685 277.129 38.8436 277.887 37.9939C278.667 37.144 279.059 36.0637 279.059 34.7526C279.059 33.4416 278.667 32.3611 277.887 31.5114C277.129 30.6615 276.127 30.2366 274.882 30.2366C273.637 30.2366 272.623 30.6615 271.843 31.5114C271.085 32.3611 270.708 33.4416 270.708 34.7526C270.708 36.0637 271.085 37.144 271.843 37.9939C272.623 38.8436 273.637 39.2685 274.882 39.2685Z" fill="black"/>
<path fill-rule="evenodd" clip-rule="evenodd" d="M33.6252 17.4034C26.9947 26.3853 27.0331 37.8608 33.7109 43.0347C35.4659 44.3945 37.5048 45.1837 39.6774 45.4452C33.5141 50.5883 26.4144 52.1843 21.6206 48.8345C15.0462 44.2405 15.2983 32.0837 22.1836 21.6818C27.933 12.9958 36.4896 8.27994 42.9841 9.63518C39.5537 11.194 36.2608 13.8329 33.6252 17.4034ZM42.3376 28.8745C39.2407 31.8811 35.7015 33.8798 32.7135 34.5448C34.4778 41.0243 41.2601 41.5222 41.2601 41.5222C41.2601 41.5222 45.2964 40.5688 48.3442 33.5328C50.854 27.739 50.6351 21.7522 48.1055 18.7055C47.8951 21.6502 45.8299 25.4837 42.3376 28.8745Z" fill="black"/>
</svg>
